src/components/SVGLibraries/AppIconLibrary/icon-files/light-theme/TRIRIGAProjects.svg

<svg id="Build_icon_here" data-name="Build icon here" xmlns="http://www.w3.org/2000/svg" xmlns:xlink="http://www.w3.org/1999/xlink" viewBox="0 0 32 32"><defs><linearGradient id="1wd6frzn8a" x1="57.998" y1="-18.005" x2="62.998" y2="-18.005" gradientTransform="matrix(1 0 0 -1 -37.498 1.495)" gradientUnits="userSpaceOnUse"><stop offset=".2" stop-color="#fff"/><stop offset="1" stop-color="#fff" stop-opacity=".2"/></linearGradient><linearGradient id="62vgltzbdb" x1="63.998" y1="-24.005" x2="68.998" y2="-24.005" gradientTransform="matrix(1 0 0 -1 -49.498 1.495)" xlink:href="#1wd6frzn8a"/><linearGradient id="iig11fnhhd" y1="2" x2="32" y2="34" gradientTransform="matrix(1 0 0 -1 0 34)" gradientUnits="userSpaceOnUse"><stop offset=".1" stop-color="#a56eff"/><stop offset=".9" stop-color="#0f62fe"/></linearGradient><mask id="skfphadboc" x="0" y="0" width="32" height="32" maskUnits="userSpaceOnUse"><path d="M18 7v4h-4V7h4m-6-2v8h8V5zM8 16v4H4v-4h4m-6-2v8h8v-8z" style="fill:#fff"/><path transform="rotate(90 23 19.5)" style="fill:url(#1wd6frzn8a)" d="M20.5 18.5h5v2h-5z"/><path transform="rotate(90 17 25.5)" style="fill:url(#62vgltzbdb)" d="M14.5 24.5h5v2h-5z"/><path d="M22 10v6h-6v6h-6v8h20V10zm0 18H12v-4h10zm6 0h-4v-4h4zm0-6H18v-4h10zm0-6h-4v-4h4z" style="fill:#fff"/></mask></defs><g style="mask:url(#skfphadboc)"><path style="fill:url(#iig11fnhhd)" d="M0 0h32v32H0z"/></g><path d="M8 4v4H4V4h4M2 2v8h8V2z" style="fill:#001d6c"/></svg>

<svg id="Build_icon_here" data-name="Build icon here" xmlns="http://www.w3.org/2000/svg" xmlns:xlink="http://www.w3.org/1999/xlink" viewBox="0 0 32 32">
  <defs>
    <linearGradient id="linear-gradient" x1="57.998" y1="-18.005" x2="62.998" y2="-18.005" gradientTransform="matrix(1, 0, 0, -1, -37.498, 1.495)" gradientUnits="userSpaceOnUse">
      <stop offset="0.2" stop-color="#fff"/>
      <stop offset="1" stop-color="#fff" stop-opacity="0.2"/>
    </linearGradient>
    <linearGradient id="linear-gradient-2" x1="63.998" y1="-24.005" x2="68.998" y2="-24.005" gradientTransform="matrix(1, 0, 0, -1, -49.498, 1.495)" xlink:href="#linear-gradient"/>
    <mask id="mask" x="0" y="0" width="32" height="32" maskUnits="userSpaceOnUse">
      <g>
        <path d="M18,7v4H14V7h4M12,5v8h8V5Z" style="fill: #fff"/>
        <path d="M8,16v4H4V16H8M2,14v8h8V14Z" style="fill: #fff"/>
        <rect x="20.5" y="18.5" width="5" height="2" transform="translate(42.5 -3.5) rotate(90)" style="fill: url(#linear-gradient)"/>
        <rect x="14.5" y="24.5" width="5" height="2" transform="translate(42.5 8.5) rotate(90)" style="fill: url(#linear-gradient-2)"/>
        <path d="M22,10v6H16v6H10v8H30V10Zm0,18H12V24H22Zm6,0H24V24h4Zm0-6H18V18H28Zm0-6H24V12h4Z" style="fill: #fff"/>
      </g>
    </mask>
    <linearGradient id="linear-gradient-3" y1="2" x2="32" y2="34" gradientTransform="matrix(1, 0, 0, -1, 0, 34)" gradientUnits="userSpaceOnUse">
      <stop offset="0.1" stop-color="#a56eff"/>
      <stop offset="0.9" stop-color="#0f62fe"/>
    </linearGradient>
  </defs>
  <g>
    <g style="mask: url(#mask)">
      <rect width="32" height="32" style="fill: url(#linear-gradient-3)"/>
    </g>
    <path d="M8,4V8H4V4H8M2,2v8h8V2Z" style="fill: #001d6c"/>
  </g>
</svg>
